X:51
T:Strachen Varrign 
T:John Malchair's Third Collection of Tunes
%%VWML:Malchair-3619-p51
F:https://www.vwml.org/record/Malchair/3619/p51
F:www.vwml.org/topics/historic-dance-and-tune-books/Malchair
Z:Steve Mansfield Feb 2020
M:3/4
L:1/4
K:D
A/B/c/ | d2D | A2F | B2B/A/ | BcA/F/ | d2c | dea | A2F | AcB/A/ | 
G3 | F2A/F/ | EF A/B/ |  A2 :: A/B/ | c/B/A/B/c/d/ | e>gf/a/ | g2f | 
eaB | c/B/A/B/c/d/ | e>gf/a/ | g2f | eaB | a2g/f/ | efd | B>cB/A/ | BcA | 
d>ed/c/ | dea | A>BA/F/ | GBB | GB/G/B/G/ |FA/F/A/F/ | EFA | A2 |] 
W:
T:Rattle the Stones
T:John Malchair's Third Collection of Tunes
%%VWML:Malchair-3619-p51
F:https://www.vwml.org/record/Malchair/3619/p51
F:www.vwml.org/topics/historic-dance-and-tune-books/Malchair
Z:Steve Mansfield Feb 2020
M:6/8
L:1/8
K:F
|: F2G A2G | ABG AFD | F2G A2G | ABG c3 | F2G ABA | ABG AGA | fed ^c=BA | Ad^c d3 :|
|: Ade fed | ^cAA AGF | Ade fed | fag a3 | Ade fed | ^cAA AGA | fed ^c=BA | Ad^c d3 :|

